svg/health2.svg

<?xml version="1.0" encoding="UTF-8"?>
<svg xmlns="http://www.w3.org/2000/svg" xmlns:xlink="http://www.w3.org/1999/xlink" width="32" height="32" viewBox="0 0 32 32">
<path fill-rule="nonzero" fill="rgb(0%, 0%, 0%)" fill-opacity="1" d="M 29.886719 5.183594 C 28.359375 3.648438 26.28125 2.785156 24.113281 2.785156 C 21.945312 2.785156 19.867188 3.648438 18.335938 5.183594 L 16.894531 6.625 L 15.457031 5.183594 C 13.925781 3.648438 11.847656 2.785156 9.679688 2.785156 C 7.511719 2.785156 5.433594 3.648438 3.902344 5.183594 C 2.335938 6.71875 1.601562 8.382812 1.601562 10.207031 C 1.601562 11.519531 1.953125 12.894531 2.625 14.398438 C 3.96875 13.601562 5.503906 13.121094 7.167969 13.121094 C 12.03125 13.121094 15.96875 17.089844 15.96875 21.953125 C 15.96875 24.097656 15.199219 26.046875 13.953125 27.585938 C 15.230469 28.574219 16.289062 29.183594 16.832031 29.183594 C 18.625 29.183594 27.359375 20.0625 29.824219 16.734375 C 32.320312 13.441406 33.054688 8.382812 29.886719 5.183594 M 7.199219 14.753906 C 5.285156 14.757812 3.449219 15.519531 2.101562 16.875 C 0.75 18.234375 -0.00390625 20.070312 0 21.984375 C 0 25.984375 3.230469 29.214844 7.199219 29.214844 C 9.34375 29.21875 11.378906 28.257812 12.734375 26.59375 C 13.808594 25.285156 14.394531 23.644531 14.398438 21.953125 C 14.433594 17.984375 11.199219 14.753906 7.199219 14.753906 M 11.390625 23.488281 L 8.671875 23.488281 L 8.671875 26.207031 L 5.695312 26.207031 L 5.695312 23.488281 L 3.007812 23.488281 L 3.007812 20.480469 L 5.695312 20.480469 L 5.695312 17.792969 L 8.671875 17.792969 L 8.671875 20.480469 L 11.359375 20.480469 L 11.359375 23.488281 Z M 11.390625 23.488281 "/>
</svg>

<svg role="img" viewBox="0 0 32 32" height="32" width="32" xmlns="http://www.w3.org/2000/svg"><path d="M29.887 5.184a8.144 8.144 0 0 0-5.774-2.399 8.16 8.16 0 0 0-5.777 2.399l-1.441 1.441-1.438-1.441a8.16 8.16 0 0 0-11.555 0c-1.566 1.535-2.3 3.199-2.3 5.023 0 1.313.351 2.688 1.023 4.191 1.344-.796 2.879-1.277 4.543-1.277 4.863 0 8.8 3.969 8.8 8.832 0 2.145-.769 4.094-2.015 5.633 1.277.988 2.336 1.598 2.879 1.598 1.793 0 10.527-9.122 12.992-12.45 2.496-3.293 3.23-8.351.063-11.55m-22.688 9.57A7.209 7.209 0 0 0 0 21.984c0 4 3.23 7.23 7.2 7.23a7.122 7.122 0 0 0 5.534-2.62 7.34 7.34 0 0 0 1.664-4.64c.036-3.97-3.199-7.2-7.199-7.2m4.192 8.734H8.67v2.719H5.696v-2.719H3.008V20.48h2.687v-2.687h2.977v2.687h2.687v3.008Zm0 0"/></svg>
